!!!!SEGMENT: pl-sa--81-a-ii-21--003_brentner-johann-joseph-ignaz--dic-mihi-quem-diligat.krn
!!!cenid: 17xx:557
!!!COM: Brentner, Johann Joseph Ignaz
!!!COM-rismID: pe30000477
!!!CDT: 1689/11/03-1742/06/28
!!!CNT: Czech
!!!OTL: Dic mihi quem diligat
!!!PDT:
!!!AGN: Sacred
!!!SMS-siglum: PL-SA
!!!SMS-shelfmark: 81/A II 21
!!!SMS-shelfwork: 003 W
!!!SMS-variant:
!!!SMS-altvar:
!!!NIFC-rismSourceID: 1001041173
!!!NIFC-islandoraID:
!!!URL-pdf-islandora:
!!!URL-scan: https://bc.bdsandomierz.pl/dlibra/publication/1359/edition/1327/content @EN{Scan on Cyfrowa Biblioteka Diecezjalna w Sandomierzu} @PL{Skany w portalu Cyfrowa Biblioteka Diecezjalna w Sandomierzu}
!!!ONB-nifc:
!!!AIN: 1 empty 1 viola 2 violn 1 vox
!!!key:
**kern	**fba	**kern	**kern	**kern	**dynam	**kern	**text
*part5	*	*part4	*part3	*part2	*part2	*part1	*part1
*staff5	*	*staff4	*staff3	*staff2	*	*staff1	*staff1
*Iempty	*	*Iviola	*Ivioln	*Ivioln	*	*Ivox	*
*I"P5	*	*I"Viola	*I"Violino 2.do	*I"Violino 1mo	*	*I"Canto	*
*I'org	*	*I'va	*I'vn 2	*I'vn 1	*	*I'C	*
*	*	*	*	*group2	*	*group1	*
*clefF4	*	*clefC3	*clefG2	*clefG2	*	*clefC1	*
*k[b-e-a-]	*	*k[b-e-a-]	*k[b-e-a-]	*k[b-e-a-]	*	*k[b-e-a-]	*
*f:	*	*f:	*f:	*f:	*	*f:	*
*M2/4	*	*M2/4	*M2/4	*M2/4	*	*M2/4	*
!LO:TX:a:t=Concerto 3tio de Deo	!	!LO:TX:a:t=P:global:problem=8\ chorągiewki w lewą stronę	!LO:TX:a:t=P:problem=brak nazwy części	!LO:TX:a:t=P:problem= powtórzony bemol przykluczowy es na pierwszej linii	!	!	!
!LO:TX:a:t=P:problem= brak przykluczowego bemola as	!	!LO:TX:b:i:t=Dic mihi	!LO:TX:a:t=P:problem= powtórzony bemol przykluczowy es na pierwszej linii	!LO:TX:b:i:t=Dic mihi	!	!LO:TX:a:t=P:problem= powtórzony bemol przykluczowy ges nad piątą linią	!
!LO:TX:a:t=P:problem=brak nazwy głosu	!	!	!	!	!	!	!
8F\	.	8f\	8a-/	8cc\	.	8r	.
=1	=1	=1	=1	=1	=1	=1	=1
!	!	!	!	!LO:TX:a:t=P:problem= mixed beam	!	!LO:N:vis=00	!
4F\	.	4f\	4a-/	8cc\L	.	0r	.
.	.	.	.	8f/	.	.	.
8r	.	8r	8r	8f/	.	.	.
8F\	6 4-	8f\	8b-\	8dd-X\J	.	.	.
=2	=2	=2	=2	=2	=2	=2	=2
!	!	!	!	!LO:TX:a:t=P:problem= mixed beam	!	!	!
4F\	.	4f\	4b-\	8dd-X\L	.	.	.
.	.	.	.	8f/J	.	.	.
!	!	!	!	!LO:TX:a:t=P:problem= mixed beam	!	!	!
8r	.	8r	8r	8f/L	.	.	.
8F\	.	8f\	8b-\	8dd-\J	.	.	.
=3	=3	=3	=3	=3	=3	=3	=3
!	!	!LO:TX:a:t=P:problem= mixed beam	!	!	!	!	!
8F\L	3	8f\L	8a-/L	8cc\L	.	.	.
!LO:TX:a:t=P:problem= mixed beam	!	!	!	!	!	!	!
8BB-/J	6 5-	8B-/	16g/L	16b-\L	.	.	.
.	.	.	16f/JJ	16a-X\JJ	.	.	.
4C/	n 4	8c/	4c/	8b-\L	.	.	.
.	3	8c/J	.	16a-\L	.	.	.
.	.	.	.	16g\JJ	.	.	.
=4	=4	=4	=4	=4	=4	=4	=4
4FF/	.	8F/L	4c/	8a-X/L	.	.	.
.	.	8G/	.	8f/J	.	.	.
8r	.	8A-/	8r	8r	.	.	.
8AA-/	.	8A-/J	8cc\	8ee-\	.	.	.
=5	=5	=5	=5	=5	=5	=5	=5
!	!	!	!	!LO:TX:a:t=P:problem= mixed beam	!	!LO:N:vis=00	!
4AA-/	-	4A-/	4cc\	8ee-\L	.	0r	.
.	.	.	.	8a-X/J	.	.	.
!	!	!	!	!LO:TX:a:t=P:problem= mixed beam	!	!	!
8r	.	8r	8r	8a-/L	.	.	.
8AA-/	6 4	8A-/	8dd-X\	8ff\J	.	.	.
=6	=6	=6	=6	=6	=6	=6	=6
!	!	!	!	!LO:TX:a:t=P:problem= mixed beam	!	!	!
4AA-/	-	4A-/	4dd\	8ff\L	.	.	.
.	.	.	.	8a-/J	.	.	.
!	!	!	!	!LO:TX:a:t=P:problem= mixed beam	!	!	!
8r	.	8r	8r	8a-/L	.	.	.
8AA-/	6 4	8A-/	8dd\	8ff\J	.	.	.
=7	=7	=7	=7	=7	=7	=7	=7
8AA-/L	.	8A-/L	8cc\L	8ee-\L	.	.	.
!	!	!LO:SIC:s=8d-:v	!	!	!	!	!
8D-X/J	6 5	8D/J	16b-\L	16dd-X\L	.	.	.
.	.	.	16a-\JJ	16cc\JJ	.	.	.
8E-\L	.	4E-/	8e-/L	8dd-X\L	.	.	.
*custos	*	*	*	*	*	*	*
!LO:TX:a:t=P:problem= mixed beam	!	!	!	!	!	!	!
8EE-/J	.	.	8e-/J	16cc\L	.	.	.
.	.	.	.	16b-\JJ	.	.	.
!LO:PB:g=original	!	!	!	!	!	!	!
=8	=8	=8	=8	=8	=8	=8	=8
4AA-/	.	8A-/L	4a-\	8cc\L	.	.	.
.	.	8B-/	.	8a-X\J	.	.	.
8r	.	8c/	8r	8r	.	.	.
8F\	.	8F/J	8a-\	8cc\	.	.	.
!	!	!LO:LB:g=original	!	!LO:LB:g=original	!	!	!
=9	=9	=9	=9	=9	=9	=9	=9
!	!	!	!	!LO:TX:a:t=P:problem= mixed beam	!	!LO:N:vis=00	!
4F\	.	4F/	4a-\	8cc\L	.	0r	.
.	.	.	.	8f/J	.	.	.
!	!	!	!	!LO:TX:a:t=P:problem= mixed beam	!	!	!
8r	.	8r	8r	8f/L	.	.	.
8F\	.	8F/	8a-\	16cc\L	.	.	.
.	.	.	.	16dd-X\JJ	.	.	.
=10	=10	=10	=10	=10	=10	=10	=10
8C/L	3	8c/L	8cc\L	8ee-\L	.	.	.
.	n	.	.	.	.	.	.
8FF/J	3	8F/	16b-\L	16dd-X\L	.	.	.
.	-	.	16a-\JJ	16cc\JJ	.	.	.
!LO:TX:a:t=P:problem= mixed beam	!	!	!	!	!	!	!
8BB-/L	5	8B-/	8b-\L	8dd-X\L	.	.	.
8G\J	n	8G/J	8bn\J	8ddn\J	.	.	.
!	!	!	!LO:LB:g=original	!	!	!	!
=11	=11	=11	=11	=11	=11	=11	=11
4G\	.	4G/	8b-\L	8dd\L	.	.	.
.	.	.	8b-\J	8g\J	.	.	.
8r	.	8r	8b-\L	8g\L	.	.	.
8G\	.	8G/	16b-\L	16dd\L	.	.	.
.	.	.	16cc\JJ	16ee-\JJ	.	.	.
=12	=12	=12	=12	=12	=12	=12	=12
!	!	!LO:TX:a:t=P:problem= mixed beam	!	!	!	!	!
8D/L	3	8d\L	8dd\L	8ff\L	.	.	.
.	n	.	.	.	.	.	.
8GG/J	3	8G/J	16cc\L	16een\L	.	.	.
.	.	.	16b-\JJ	16dd\JJ	.	.	.
!	!	!	!LO:TX:a:t=P:problem= mixed beam	!LO:TX:a:t=P:problem= mixed beam	!	!	!
4C/	.	4c/	8cc\L	8ee\L	.	.	.
.	.	.	8en/J	8g/J	.	.	.
=13	=13	=13	=13	=13	=13	=13	=13
!	!	!LO:TX:a:t=P:problem=takt 13 ujęty w repetycję	!	!	!	!LO:N:vis=00	!
4C/	5 n	4c/	((8e-/L	(8g/L	.	0r	.
.	6 3	.	8f/	8a-X/	.	.	.
4C/	6 4	4c/	8f/	8a-/	.	.	.
.	7 4	.	8g/J))	8b-/J)	.	.	.
=14	=14	=14	=14	=14	=14	=14	=14
!	!	!LO:TX:a:t=P:problem=takt 14 powtórzony repetycją	!	!	!	!	!
4C/	6	4c/yy	(8g/L	(8b-\L	.	.	.
.	5	.	8a-/	8cc\	.	.	.
4C/	5	4c/yy	8a-/	8cc\	.	.	.
.	.	.	8en/J)	8g\J)	.	.	.
=15	=15	=15	=15	=15	=15	=15	=15
4C/	6	4C/	((8e-/L	(8g/L	.	.	.
.	.	.	8f/	8a-X/	.	.	.
4C/	.	4C/	8f/	8a-/	.	.	.
.	.	.	8g/J))	8b-/J)	.	.	.
=16	=16	=16	=16	=16	=16	=16	=16
4C/	7	4c/	((8g/L	8b-\L	.	.	.
.	6	.	8b-/	8dd-X\	.	.	.
8BB-/L	6	8B-/L	8b-/	8dd-\	.	.	.
8BB-/J	3	8d-X/J	8a-/J))	8cc\J	.	.	.
=17	=17	=17	=17	=17	=17	=17	=17
4C/	6 4	4c/	8a-/L	8cc\L	.	2r	.
.	.	.	16g/L	16b-\L	.	.	.
.	.	.	16f/JJ	16a-X\JJ	.	.	.
*custos	*	*	*	*	*	*	*
!LO:SIC:s=4CC:v	!	!	!	!LO:LB:g=original	!	!	!
4DD/	5 3	4C/	8c/L	8a-/L	.	.	.
.	n	.	8c/J	16g/L	.	.	.
.	.	.	.	16f/JJ	.	.	.
!LO:LB:g=original	!	!	!	!	!	!	!
=18	=18	=18	=18	=18	=18	=18	=18
4FF/	.	4F/	4c/	4f/	.	4r	.
4r	.	8r	8r	8r	.	8r	.
.	.	8F/	8a-/	8cc\	.	8cc\	dic
=19	=19	=19	=19	=19	=19	=19	=19
!LO:N:vis=00	!	!	!	!LO:TX:a:t=P:problem= mixed beam	!	!	!
0r	.	4F/	4a-/	8cc\L	.	8cc\L	mi-
!	!	!	!	!LO:TX:b:t=f	!	!LO:TX:a:t=P:problem= mixed beam	!
.	.	.	.	8f/	.	8f/J	-hi
!	!	!	!	!LO:TX:b:t=f	!	!	!
.	.	8r	8r	8f/	.	8f/	.
.	.	8F/	8b-\	8dd-X\J	.	8dd-X\	quem
!	!	!LO:LB:g=original	!	!	!	!	!
=20	=20	=20	=20	=20	=20	=20	=20
!	!	!	!	!LO:TX:a:t=P:problem= mixed beam	!	!	!
.	.	4F/	4b-\	8dd\L	.	8dd\	di-
.	.	.	.	8f/	.	8f/	-li-
.	.	8r	8r	8f/	.	8f/	-git
*	*	*	*custos	*	*	*	*
.	.	8F/	8b-\	8dd-X\J	.	8dd-X\	a-
!	!	!	!LO:LB:g=original	!	!	!	!
=21	=21	=21	=21	=21	=21	=21	=21
.	.	8F/L	8a-/L	8cc\L	.	8cc\L	-ni-
.	.	8B-/	16g/L	16b-\L	.	16b-\L	-ma
.	.	.	16f/JJ	16a-X\JJ	.	16a-\JJ	.
.	.	8c/	8c/L	8b-\L	.	8b-\	a-
!	!	!	!	!LO:TX:a:t=♭	!	!	!
.	.	8C/J	8c/J	16a-y\L	.	16a-\L	-ni-
.	.	.	.	16g\JJ	.	16g\J	-ma
=22	=22	=22	=22	=22	=22	=22	=22
.	.	8F/L	4c/	8a-X/L	.	8a-\	me-
.	.	8G/	.	8f/J	.	8f/	-a
.	.	8A-/	8r	8r	.	8r	.
!	!	!	!	!	!	!LO:LB:g=original	!
.	.	8G/J	8cc\	8ee-\	.	8ee-\	dic
=23	=23	=23	=23	=23	=23	=23	=23
!LO:N:vis=00	!	!	!	!LO:TX:a:t=P:problem= mixed beam	!	!	!
0r	.	4A-/	4cc\	8ee-\L	.	(8ee-\L	mi-
.	.	.	.	8a-/	.	8a-\J)	.
.	.	8r	8r	8a-/	.	8a-\	-hi
.	.	8A-/	8dd-X\	8ff\J	.	8ff\	quem
=24	=24	=24	=24	=24	=24	=24	=24
!	!	!	!	!LO:TX:a:t=P:problem= mixed beam	!	!	!
.	.	4A-/	4dd\	8ff\L	.	8ff\	di-
.	.	.	.	8a-X/	.	8a-\	-li-
.	.	8r	8r	8a-/	.	8a-\	-git
.	.	8A-/	8dd\	8ff\J	.	8ff\	a-
=25	=25	=25	=25	=25	=25	=25	=25
.	.	8A-/L	8cc\L	8ee-\L	.	8ee-\L	.
!	!	!	!	!	!	!LO:SIC:s=16dd-:v	!
.	.	16c/L	16b-\L	16dd-X\L	.	16dd\L	.
.	.	16d-X/JJ	16a-\JJ	16cc\JJ	.	16cc\JJ	.
!	!	!LO:TX:a:t=P:problem= mixed beam	!	!	!	!	!
.	.	8e-\L	8e-/L	8dd-X\L	.	8dd-X\	-ni-
.	.	8E-/J	8e-/J	16cc\L	.	16cc\LL	-ma
*	*	*	*	*custos	*	*	*
.	.	.	.	16b-\JJ	.	16b-\JJ	.
!	!	!	!	!LO:LB:g=original	!	!	!
=26	=26	=26	=26	=26	=26	=26	=26
.	.	4A-/	4a-/	8cc\L	.	8cc\L	me-
.	.	.	.	8a-X\J	.	16b-\L	.
.	.	.	.	.	.	16a-\JJ	.
!	!	!	!	!	!	!LO:N:vis=8	!
.	.	8r	8r	8r	.	16b-\	-a
.	.	.	.	.	.	8r	.
.	.	8e-\	8g/	8b-\	.	.	.
*	*	*	*	*	*	*custos	*
!	!	!	!	!	!	!LO:TX:a:t=P:problem= w źródle za dużo wartości rytmicznych o jedną ósemkę	!
!	!	!	!	!	!	!LO:N:vis=8	!
.	.	.	.	.	.	16b-\	ne
!	!	!	!	!	!	!LO:LB:g=original	!
=27	=27	=27	=27	=27	=27	=27	=27
!LO:N:vis=00	!	!	!	!	!	!	!
0r	.	4E-/	(8g/L	(8b-\L	.	(8b-\L	va-
.	.	.	8a-/	8cc\	.	8cc\J)	.
.	.	4e-\	8a-/	8cc\	.	(8cc\L	-gier
.	.	.	8b-/J)	8dd-X\J)	.	8dd-X\J)	.
=28	=28	=28	=28	=28	=28	=28	=28
.	.	4e-\	(8b-\L	(8dd\L	.	(8dd\L	post
.	.	.	8cc\	8ee-\	.	8ee-\J)	.
.	.	4E-/	8cc\	8ee-\	.	8ee-\	gre-
.	.	.	8g\J)	8b-\J)	.	8b-\	-gem
!	!	!LO:LB:g=original	!	!	!	!	!
=29	=29	=29	=29	=29	=29	=29	=29
.	.	4e-\	(8g/L	(8b-\L	.	(8b-\L	Sed
.	.	.	8a-/	8cc\	.	8cc\J)	.
.	.	4d\	8a-/	8cc\	.	8cc\	se-
.	.	.	8b-/J)	8dd-X\J)	.	8dd-X\	-quar-
=30	=30	=30	=30	=30	=30	=30	=30
.	.	4e-\	8b-\L	(8dd\L	.	8.dd\L	-te
.	.	.	8dd-X\	8ff\	.	.	.
.	.	.	.	.	.	16ee-\Jk	.
.	.	8d-X\L	8dd-\	8ff\	.	8ff\	re-
.	.	8d-\J	8cc\J	8ee-\J)	.	8ee-\	-gem
=31	=31	=31	=31	=31	=31	=31	=31
!LO:N:vis=00	!	!	!	!	!	!	!
0r	.	4e-\	8cc\L	8ee-\L	.	8ee-\	dic
!	!	!	!	!LO:SIC:s=16dd-:v	!	!	!
.	.	.	16b-\L	16dd\L	.	(16dd-X\LL	di-
.	.	.	16a-\JJ	16cc\JJ	.	16cc\JJ)	.
!	!	!LO:SIC:s=4e-:v	!LO:LB:g=original	!	!	!	!
.	.	4C/	8e-/L	8cc\L	.	8cc\	-le-
.	.	.	8e-/J	16b-\L	.	(16b-\LL	-cte
.	.	.	.	16a-X\JJ	.	16a-\JJ)	.
!	!	!	!	!	!	!LO:LB:g=original	!
=32	=32	=32	=32	=32	=32	=32	=32
!	!	!LO:SIC:s=4a-:v	!	!	!	!	!
.	.	4G/	4c/	4a-/	.	4a-\	mi
.	.	8r	8r	8r	.	8r	.
.	.	8f\	8a-\	8cc\	.	8cc\	di
=33	=33	=33	=33	=33	=33	=33	=33
!	!	!	!	!LO:TX:a:t=P:problem= mixed beam	!	!	!
.	.	4f\	4a-\	8cc\L	.	8cc\L	u
!	!	!	!	!	!	!LO:TX:a:t=P:problem= mixed beam	!
.	.	.	.	8f/J	.	8f/J	.
!	!	!	!	!LO:TX:a:t=P:problem= mixed beam	!	!	!
.	.	8r	8r	8f/L	.	8f/	bi
.	.	8f\	8a-\	16cc\L	.	16cc\LL	pa-
!	!	!	!	!LO:TX:a:t=♭	!	!	!
.	.	.	.	16dd-y\JJ	.	16dd-X\JJ	.
=34	=34	=34	=34	=34	=34	=34	=34
.	.	8c/L	8cc\L	8ee-\L	.	8ee-\	.
.	.	8F/	16b-\L	16dd-X\L	.	(16dd-X\LL	.
.	.	.	16a-\JJ	16cc\JJ	.	16cc\JJ)	.
!	!	!	!	!LO:TX:a:t=♭	!	!	!
.	.	8B-/	8b-\L	8dd-y\L	.	8dd-X\	-sas
*	*	*	*	*custos	*	*	*
.	.	8G/J	8bn\J	8ddn\J	.	8ddn\	dic
!	!	!	!	!LO:LB:g=original	!	!	!
=35	=35	=35	=35	=35	=35	=35	=35
!LO:N:vis=00	!	!LO:SIC:s=4g:v	!	!LO:TX:a:t=P:problem= mixed beam	!	!	!
0r	.	4F/	8b-\L	8dd\L	.	(8dd\L	u-
.	.	.	8b-\J	8g/J	.	8g\J)	.
!	!	!	!	!LO:TX:a:t=P:problem= mixed beam	!	!	!
.	.	8r	8b-\L	8g/L	.	8g\	-bi
.	.	8G/	16b-\L	16ddn\L	.	(16ddn\LL	cu-
.	.	.	16cc\JJ	16ee-\JJ	.	16ee-\JJ)	.
=36	=36	=36	=36	=36	=36	=36	=36
!	!	!LO:TX:a:t=P:problem= mixed beam	!	!	!	!	!
.	.	8d\L	8dd\L	8ff\L	.	8ff\	.
!	!	!	!	!	!	!LO:SIC:s=16een:v	!
.	.	8G/J	16cc\L	16een\L	.	(16ee-\LL	.
.	.	.	16bn\JJ	16dd\JJ	.	16ddn\JJ)	.
!	!	!	!	!LO:TX:a:t=P:problem= mixed beam	!	!LO:LB:g=original	!
.	.	4c/	8g/L	8ee\L	.	8ee-\	-bas
.	.	.	8en/J	8g/J	.	8g/	ne
=37	=37	=37	=37	=37	=37	=37	=37
.	.	4c/	(8e-/L	(8g/L	.	8g\L	va-
.	.	.	8f/	8a-/	.	8a-X\J	.
.	.	4c/	8f/	8a-/	.	8a-\	-gier
.	.	.	8g/J)	8b-/J)	.	8b-\	post
!	!	!LO:LB:g=original	!	!	!	!	!
=38	=38	=38	=38	=38	=38	=38	=38
!	!	!	!	!	!	!LO:N:vis=8.	!
.	.	4c/	(8g/L	(8b-\L	.	12b-\L	gre-
!	!	!	!	!	!	!LO:N:vis=16	!
.	.	.	.	.	.	12dd\	.
.	.	.	8a-/	8cc\	.	.	.
!	!	!	!	!	!	!LO:N:vis=16	!
.	.	.	.	.	.	12cc\J	.
.	.	4c/	8b-/	8cc\	.	8cc\	-gem
.	.	.	8e#X/J)	8g\J)	.	8g/	sed
=39	=39	=39	=39	=39	=39	=39	=39
!LO:N:vis=00	!	!	!	!	!	!	!
0r	.	4c/	(8e-/L	(8g/L	.	12g\L	se-
!	!	!	!	!	!	!LO:N:vis=16	!
.	.	.	.	.	.	12b-\	.
.	.	.	8f/	8a-X/	.	.	.
!	!	!	!	!	!	!LO:N:vis=16	!
.	.	.	.	.	.	12a-\J	.
.	.	4c/	8f/	8a-/	.	8a-\	-quar-
.	.	.	8g/J)	8b-/J)	.	8b-\	-te
=40	=40	=40	=40	=40	=40	=40	=40
.	.	4c\	(8g/L	8b-\L	.	8b-\L	Re-
.	.	.	8b-/	(8dd-X\	.	8dd-X\J	.
.	.	8B-/L	8b-/	8dd-\	.	8dd-\	-gem
*	*	*	*custos	*	*	*custos	*
.	.	8d-X/J	8a-/J)	8cc\J)	.	8cc\	di-
!	!	!	!LO:LB:g=original	!	!	!LO:LB:g=original	!
=41	=41	=41	=41	=41	=41	=41	=41
.	.	4c/	8a-/L	8cc\L	.	8cc\L	-le-
.	.	.	16g/L	16b-\L	.	16b-\L	.
.	.	.	16f/JJ	16a-X\JJ	.	16a-\JJ	.
.	.	4c/	8c/L	8a-/L	.	8a-\	-cte
.	.	.	8c/J	16g/L	.	16g/LL	.
.	.	.	.	16f/JJ	.	16f/JJ	.
=42	=42	=42	=42	=42	=42	=42	=42
.	.	4F/	4c/	4f/	.	4f/	mi
.	.	8r	8r	8r	.	8r	.
.	.	8d/	8en/	8g/	.	8g\	dic
=43	=43	=43	=43	=43	=43	=43	=43
!LO:N:vis=00	!	!	!	!	!	!	!
0r	.	4c/	(8e-/L	(8g/L	.	(8g\L	u-
.	.	.	8f/	8a-/	.	8a-X\J)	.
.	.	4c/	8f/	8a-/	.	(8a-\L	-bi
.	.	.	8g/J)	8b-/J)	.	8b-\J)	.
=44	=44	=44	=44	=44	=44	=44	=44
.	.	4c/	(8g/L	(8b-\L	.	(8b-\L	pa-
.	.	.	8a-/	8cc\	.	8cc\J)	.
.	.	4c/	8a-/	8cc\	.	8cc\	-scas
.	.	.	8en/J)	8g\J)	.	8g/	dic
!	!	!	!	!LO:LB:g=original	!	!	!
=45	=45	=45	=45	=45	=45	=45	=45
.	.	4c/	(8e-/L	(8g/L	.	(8g\L	u-
.	.	.	8f/	8a-/	.	8a-\J)	.
.	.	4c/	8f/	8a-/	.	(8a-\L	-bi
*	*	*	*	*	*	*custos	*
.	.	.	8g/J)	8b-/J)	.	8b-\J)	.
!	!	!	!	!	!	!LO:LB:g=original	!
=46	=46	=46	=46	=46	=46	=46	=46
.	.	8A-/L	(8g/L	8b-\L	.	(8b-\L	cu-
.	.	8B-/J	8b-/	(8dd-X\	.	8dd-X\J)	.
.	.	4c/	8b-/	8dd-\	.	8dd-\	-bas
.	.	.	8a-/J)	8cc\J)	.	8cc\	di-
=47	=47	=47	=47	=47	=47	=47	=47
2r	.	4c/	8a-/L	8cc\L	.	8cc\L	-le-
.	.	.	16g/L	16b-\L	.	16b-\L	.
.	.	.	16f/JJ	16a-X\JJ	.	16a-\JJ	.
.	.	4C/	8c/L	8a-/L	.	8a-\	-cte
.	.	.	8c/J	16g/L	.	16g/LL	.
.	.	.	.	16f/JJ	.	16f/JJ	.
!	!	!LO:LB:g=original	!	!	!	!	!
=48	=48	=48	=48	=48	=48	=48	=48
4r	.	4A-/	4c/	4f/	.	4f/	mi
8r	.	8r	8r	8r	.	4r	.
8F\	.	8f\	8a-/	8f/	.	.	.
=49	=49	=49	=49	=49	=49	=49	=49
!	!	!	!	!LO:TX:a:t=P:problem= mixed beam	!	!LO:N:vis=00	!
4F\	.	4f\	4a-\	8cc\L	.	0r	.
.	.	.	.	8f/	.	.	.
8r	.	8r	8r	8f/	.	.	.
8F\	6 4-	8f\	8b-\	8dd-X\J	.	.	.
=50	=50	=50	=50	=50	=50	=50	=50
!	!	!	!	!LO:TX:a:t=P:problem= mixed beam	!	!	!
4F\	.	8f\L	4b-\	8dd\L	.	.	.
.	.	8B-\J	.	8f/	.	.	.
8r	.	4c\	8r	8f/	.	.	.
8F\	.	.	8b-\	8dd-X\J	.	.	.
=51	=51	=51	=51	=51	=51	=51	=51
!LO:TX:a:t=P:problem= mixed beam	!	!	!	!	!	!	!
.	- 3	.	.	.	.	.	.
!LO:TX:a:t=P:problem=niewyraźnie zapisany bas cyfrowany	!	!	!	!	!	!	!
8F\L	6 5 5	4f\	4b-\	8cc\L	.	.	.
.	4 3	.	.	.	.	.	.
8BB-/J	.	.	.	16b-\L	.	.	.
.	.	.	.	16a-\JJ	.	.	.
4C/	.	8r	8r	8b-/L	.	.	.
*	*	*	*custos	*	*	*	*
.	.	8A-/	8b-\	16a-/L	.	.	.
.	.	.	.	16g/JJ	.	.	.
!	!	!	!LO:LB:g=original	!	!	!	!
=52	=52	=52	=52	=52	=52	=52	=52
4FF/	.	4A-/	8a-/L	8a-/L	.	.	.
.	.	.	16g/L	8f/J	.	.	.
.	.	.	16f/JJ	.	.	.	.
8r	.	8r	4c/	8r	.	.	.
8AA-/	.	8A-/	.	8ee-\	.	.	.
=53	=53	=53	=53	=53	=53	=53	=53
!	!	!	!	!LO:TX:a:t=P:problem= mixed beam	!	!LO:N:vis=00	!
4AA-/	-	4A-/	4c/	8ee-\L	.	0r	.
.	.	.	.	8a-X/	.	.	.
8r	.	8r	8r	8a-/	.	.	.
8AA-/	6 4	8A-/	8cc\	8ff\J	.	.	.
=54	=54	=54	=54	=54	=54	=54	=54
!	!	!	!	!LO:TX:a:t=P:problem= mixed beam	!	!	!
4AA-/	.	8c\L	4cc\	8ff\L	.	.	.
.	.	8d-X\J	.	8a-X/	.	.	.
8r	.	4e-\	8r	8a-/	.	.	.
*custos	*	*	*	*	*	*	*
8AA-/	.	.	8dd-X\	8ff\J	.	.	.
!LO:LB:g=original	!	!	!	!LO:PB:g=original	!	!	!
=55	=55	=55	=55	=55	=55	=55	=55
!	!	!	!LO:SIC:s=4dd-:v	!	!	!	!
8AA-/L	5 3	4A-/	4dd\	8ee-\L	.	.	.
!	!	!	!	!LO:SIC:s=16dd-:v	!	!	!
8D-X/J	6 5	.	.	16dd\L	.	.	.
.	.	.	.	16cc\JJ	.	.	.
!LO:TX:a:t=P:problem= mixed beam	!	!	!	!	!	!	!
8E-\L	6 4	8r	8r	8dd\L	.	.	.
8EE-/J	7 3	8f\	8dd\	16cc\L	.	.	.
.	.	.	.	16b-\JJ	.	.	.
!	!	!LO:LB:g=original	!	!	!	!	!
=56	=56	=56	=56	=56	=56	=56	=56
4AA-/	.	4f\	8cc\L	8cc\L	.	.	.
.	.	.	16b-\L	8a-\J	.	.	.
.	.	.	16a-\JJ	.	.	.	.
8r	.	8r	8e-/L	8r	.	.	.
8F\	.	8f\	8e-/J	8cc\	.	.	.
=57	=57	=57	=57	=57	=57	=57	=57
!	!	!LO:TX:a:t=P:problem= brak jednego taktu w źródle	!	!LO:TX:a:t=P:problem= mixed beam	!	!LO:N:vis=00	!
4F\	.	2ryy	4c/	8cc\L	.	0r	.
.	.	.	.	8f/	.	.	.
8r	.	.	8r	8f/	.	.	.
8F\	.	.	8a-/	16cc\L	.	.	.
.	.	.	.	16dd-X\JJ	.	.	.
=58	=58	=58	=58	=58	=58	=58	=58
8C/L	7	8c/L	4a-/	8ee-\L	.	.	.
.	n	.	.	.	.	.	.
8FF/J	- 3	8F/	.	16dd-X\L	.	.	.
.	.	.	.	16cc\JJ	.	.	.
8BB-\/L	3	8B-/	8r	8dd-X\L	.	.	.
.	n	.	.	.	.	.	.
!LO:TX:a:t=P:problem= mixed beam	!	!	!	!	!	!	!
8G\J	3	8F/J	8b-\	8ddn\J	.	.	.
=59	=59	=59	=59	=59	=59	=59	=59
4G\	.	4G/	8cc\L	8dd\L	.	.	.
.	.	.	16b-\L	8g\J	.	.	.
.	.	.	16a-\JJ	.	.	.	.
8r	.	8r	8b-\L	8g\L	.	.	.
8G\	.	8G/	8bn\J	16dd\L	.	.	.
.	.	.	.	16ee-\JJ	.	.	.
=60	=60	=60	=60	=60	=60	=60	=60
8D/L	7	8d\L	4b-\	8ff\L	.	.	.
.	n	.	.	.	.	.	.
!	!	!	!	!LO:TX:a:t=♮	!	!	!
8GG/J	7	8G/J	.	16eeny\L	.	.	.
!	!	!	!	!LO:TX:a:t=♮	!	!	!
.	5	.	.	16ddny\JJ	.	.	.
!	!	!	!	!LO:TX:a:t=P:problem= mixed beam	!	!	!
4C/	.	4c/	8b-\L	8ee\L	.	.	.
.	.	.	8cc\J	8g\J	.	.	.
=61	=61	=61	=61	=61	=61	=61	=61
!	!	!	!	!	!	!LO:N:vis=00	!
4C/	5 3	4c/	8dd\L	(8g/L	.	0r	.
.	6 4 3	.	16cc\L	8a-X/	.	.	.
.	.	.	16bn\JJ	.	.	.	.
!	!	!	!LO:LB:g=original	!	!	!	!
!	!	!	!LO:TX:a:t=P:problem= mixed beam	!	!	!	!
4C/	6 5	4c/	8cc\L	8a-/	.	.	.
.	.	.	8en/J	8b-/J)	.	.	.
=62	=62	=62	=62	=62	=62	=62	=62
!	!	!	!LO:SIC:s=8en:v	!	!	!	!
4C/	7	4c/	(8e-/L	(8b-\L	.	.	.
.	8	.	8f/	8cc\	.	.	.
*custos	*	*	*	*	*	*	*
4C/	8	4c/	8f/	8cc\	.	.	.
*	*	*	*	*custos	*	*	*
.	5	.	8g/J)	8g\J)	.	.	.
!LO:LB:g=original	!	!	!	!LO:LB:g=original	!	!	!
=63	=63	=63	=63	=63	=63	=63	=63
4C/	6 3	4c/	(8g/L	(8g/L	.	.	.
.	.	.	8a-/	8a-X/	.	.	.
4C/	6 5	4c/	8a-/	8a-/	.	.	.
.	.	.	8en/J)	8b-/J)	.	.	.
=64	=64	=64	=64	=64	=64	=64	=64
!	!	!	!LO:SIC:s=8en:v	!	!	!	!
4C/	8	4c\	(8e-/L	(8b-\L	.	.	.
.	.	.	8f/	8dd-X\	.	.	.
8BB-/L	-	8G/L 8B-	8f/	8dd-\	.	.	.
8BB-/J	3	8G/J 8B-	8g/J)	8cc\J)	.	.	.
=65	=65	=65	=65	=65	=65	=65	=65
!	!	!	!	!	!	!LO:N:vis=0	!
4C/	6 4	4c/	(8g/L	8cc\L	.	1r;;	.
.	5 3	.	8b-/	16b-\L	.	.	.
.	.	.	.	16a-\JJ	.	.	.
4CC/	.	4C/	8b-/	8b-\L	.	.	.
.	.	.	8a-/J)	16a-\L	.	.	.
.	.	.	.	16g\JJ	.	.	.
!	!	!LO:LB:g=original	!	!	!	!	!
=66	=66	=66	=66	=66	=66	=66	=66
4FF/	-	4F/	8a-/L	4f/	.	.	.
.	.	.	16g/L	.	.	.	.
.	.	.	16f/JJ	.	.	.	.
8r	.	8r	8c/L	8r	.	.	.
8BB-/	6 5 3	8d-X\	8c/J	8g/	.	.	.
=67	=67	=67	=67	=67	=67	=67	=67
4C/	.	4c\	4c/	4c/	.	2r	.
4CC/	.	4C/	8r	4en/	.	.	.
.	.	.	8d-X/	.	.	.	.
!	!	!LO:TX:a:t=P:problem= kreska taktowa z obustronną repetycją	!	!	!	!	!
=68	=68	=68	=68	=68	=68	=68	=68
!	!	!LO:TX:b:i:t=Finis	!	!	!	!	!
4FF/	.	4F/	4c;;/	4f;;/	.	4r	.
!LO:TX:a:t=P:problem= podwójna kresta taktowa z obustronną repetycją	!	!	!	!	!	!	!
4r	.	8r	4c/	8r	.	8r	.
.	.	8c/	.	8g/	.	8g/	Tu
=69	=69	=69	=69	=69	=69	=69	=69
!LO:N:vis=00	!	!	!	!	!	!	!
0r	.	4c/	4c/	8g/L	.	8g/L	pul-
!	!	!	!	!	!LO:DY:b:t=piano	!	!
.	.	.	.	8c/J	p	8c/J	.
!	!	!	!	!LO:TX:a:t=P:problem= mixed beam	!	!	!
.	.	8r	8r	8c/L	.	8c/	-cher
*	*	*	*	*	*	*custos	*
.	.	8c/	8e-/	8a-X\J	.	8a-X\	de
!	!	!	!	!	!	!LO:LB:g=original	!
=70	=70	=70	=70	=70	=70	=70	=70
.	.	4c/	4e-/	8a-/L	.	8a-\L	co-
!	!	!	!	!	!	!LO:TX:a:t=P:problem= mixed beam	!
.	.	.	.	8c/	.	8c/J	.
.	.	8r	8r	8c/	.	8c/	-rus
.	.	8c/	8f/	8a-/J	.	8a-X\	dul-
=71	=71	=71	=71	=71	=71	=71	=71
.	.	8c/L	4f/	8g/L	.	8g/	-ci
.	.	8F/J	.	16f/L	.	16f/LL	.
.	.	.	.	16e-/JJ	.	16e-/JJ	.
.	.	4G/	8r	8f/L	.	8f/	si
.	.	.	8f/	16e-/L	.	16e-/LL	me
.	.	.	.	16d/JJ	.	16d/JJ	.
!	!	!	!LO:LB:g=original	!LO:LB:g=original	!	!	!
=72	=72	=72	=72	=72	=72	=72	=72
.	.	4c/	8e-/L	8e-/L	.	16d/LL	Je-
.	.	.	.	.	.	16c/JJ	.
!	!	!	!	!	!	!LO:N:vis=4	!
.	.	.	16d/L	8c/J	.	8c/	-su
.	.	.	16c/JJ	.	.	.	.
.	.	8r	8d/L	8r	.	8r	.
.	.	8e-\	16c/L	8cc\	.	8cc\	Sub
!	!	!	!LO:TX:b:t=♮	!	!	!	!
.	.	.	16Bny/JJ	.	.	.	.
=73	=73	=73	=73	=73	=73	=73	=73
!LO:N:vis=00	!	!LO:TX:a:t=P:problem= mixed beam	!	!LO:SIC:s=8d-:v	!	!	!
0r	.	8f\L	4c/	8dd\L	.	8dd-X\L	um-
.	.	8d\	.	8cc\	.	8cc\J	.
.	.	8g\	8r	8cc\	.	8cc\	-bra
.	.	8G/J	8g/	8dd-X\J	.	8dd-\	tu-
!	!	!LO:LB:g=original	!	!	!	!	!
=74	=74	=74	=74	=74	=74	=74	=74
.	.	4c/	8b-/L	4ee-\	.	4ee-\	-a
.	.	.	8g/	.	.	.	.
.	.	8r	8g/	8r	.	8r	.
*	*	*	*	*	*	*custos	*
.	.	8G/	8g/J	8cc\	.	8cc\	qui
!	!	!	!	!	!	!LO:LB:g=original	!
=75	=75	=75	=75	=75	=75	=75	=75
!	!	!	!	!LO:TX:a:t=P:problem= mixed beam	!	!	!
.	.	4G/	4cc\	8g/L	.	8g\L	e-
.	.	.	.	8cc\	.	8cc\J	.
.	.	4G/	8r	8bn\	.	8bn\	-scam
.	.	.	8g/	8cc\J	.	8cc\	lan-
=76	=76	=76	=76	=76	=76	=76	=76
!	!	!	!	!LO:TX:a:t=P:problem= mixed beam	!	!	!
.	.	4G/	4g/	8f/L	.	8g\L	-gue-
.	.	.	.	8cc\	.	8cc\J	.
.	.	4G/	4g/	8bn\	.	8bn\	-scam
.	.	.	.	8cc\J	.	8cc\	lan-
=77	=77	=77	=77	=77	=77	=77	=77
!LO:N:vis=00	!	!	!	!LO:TX:a:t=P:problem= mixed beam	!	!	!
0r	.	4G/	4g/	8e-/L	.	8g\L	-gue-
.	.	.	.	8cc\	.	8cc\J	.
.	.	4G/	4g/	8bn\	.	8bn\	-scam
.	.	.	.	8cc\J	.	8cc\	tu-
=78	=78	=78	=78	=78	=78	=78	=78
.	.	4d\	4g/	4f/	.	4.f/	-i
.	.	8e-\L	4g/	8r	.	.	.
.	.	8f\J	.	8f/	.	8r	.
=79	=79	=79	=79	=79	=79	=79	=79
.	.	4g\	4bn\	4e-/	.	8e-/L	tu-
.	.	.	.	.	.	8g/J	.
.	.	4G/	8r	4d/	.	8bn\	-i
.	.	.	8b\	.	.	8cc\	a-
=80	=80	=80	=80	=80	=80	=80	=80
.	.	4c/	4g/	4c/	.	(4g\	-mo-
.	.	8r	4g/	8r	.	4bn\)	.
.	.	8F/	.	8cc\	.	.	.
=81	=81	=81	=81	=81	=81	=81	=81
1r	.	4G/	4g/	4g\	.	4.cc\	-re
.	.	4G/	8r	4bn\	.	.	.
.	.	.	8g/	.	.	8r	.
=82	=82	=82	=82	=82	=82	=82	=82
!LO:TX:a:t=Da Capo	!	!	!	!	!	!LO:TX:a:t=P:problem= brakujący takt w źródle	!
.	.	4.c/	4.en/	4cc\	.	2ryy	.
.	.	.	.	4r	.	.	.
!	!	!LO:TX:a:t=podwójna kreska taktowa z obustronną fermatą	!LO:TX:b:t=DaCapo\nadfinis.	!	!	!	!
!	!	!LO:TX:a:t=Da Capo ad signum Finis	!	!LO:TX:b:t=Da Capo	!	!LO:TX:b:t=Da Capo	!
.	.	8ryy	8r	.	.	.	.
=||	=||	=||	=||;;	=||;;	=||	=||;;	=||
*-	*-	*-	*-	*-	*-	*-	*-
!!!system-decoration: [(g1)][(g2)][(g3)]
!!!ENC: Anna Matuszewska
!!!END: 2020-12-05
!!!ENC: Anastazja Marusiak
!!!END: 2020-05-28
